src/img/comments-vk.svg

<svg width="14" height="14" viewBox="0 0 14 14" fill="none" xmlns="http://www.w3.org/2000/svg">
<rect width="14" height="14" rx="6" fill="white"/>
<path d="M12 0H2C0.895431 0 0 0.89543 0 2V12C0 13.1046 0.89543 14 2 14H12C13.1046 14 14 13.1046 14 12V2C14 0.895431 13.1046 0 12 0Z" fill="#44678D"/>
<path d="M3.62715 4.26054C3.96268 5.08912 4.3879 5.87032 4.94795 6.57163C5.02224 6.66496 5.11587 6.74793 5.21451 6.81548C5.35859 6.91443 5.49452 6.87966 5.55311 6.71484C5.61507 6.54189 5.67193 6.19138 5.67531 6.00976C5.68456 5.5352 5.67393 5.22419 5.64843 4.75022C5.6319 4.44664 5.52398 4.18009 5.07744 4.09963C4.93954 4.07469 4.92673 3.96118 5.01532 3.84794C5.19977 3.6122 5.45671 3.57463 5.73534 3.55976C6.18692 3.53537 6.64016 3.55527 7.09229 3.55976C7.27646 3.56145 7.46173 3.57629 7.6431 3.61582C7.87968 3.6674 8.00636 3.83335 8.04535 4.0643C8.06553 4.18343 8.07591 4.30591 8.07309 4.42646C8.06132 4.94446 8.03638 5.46218 8.03048 5.9799C8.02796 6.18311 8.0428 6.3914 8.08627 6.58929C8.14709 6.8651 8.33488 6.93434 8.52691 6.73506C8.77077 6.48196 8.98577 6.19715 9.18757 5.9079C9.55422 5.38176 9.82805 4.80434 10.0638 4.20899C10.1857 3.90179 10.2791 3.83507 10.6095 3.83424C11.2307 3.83283 11.8518 3.83228 12.473 3.83424C12.5832 3.83479 12.6984 3.84518 12.8024 3.87826C12.9711 3.93208 13.0381 4.06971 12.9986 4.24435C12.9063 4.6536 12.6852 5.00144 12.4483 5.33586C12.0682 5.87235 11.6699 6.39597 11.2809 6.92629C11.2313 6.99384 11.1876 7.06588 11.1469 7.13902C11.0014 7.40196 11.0115 7.54938 11.2237 7.76829C11.5615 8.11672 11.9231 8.44268 12.2502 8.80063C12.4879 9.06105 12.7079 9.34358 12.8963 9.64097C13.1345 10.0171 12.9873 10.3714 12.5422 10.4345C12.2622 10.474 10.8944 10.4348 10.8237 10.4345C10.456 10.4328 10.1336 10.3053 9.87404 10.0555C9.58533 9.77749 9.32296 9.47251 9.04574 9.18239C8.96221 9.09493 8.87306 9.01113 8.77694 8.93795C8.55017 8.765 8.3276 8.8034 8.22165 9.06971C8.13112 9.29845 8.05291 9.89911 8.04925 9.95042C8.0302 10.2187 7.85949 10.3896 7.55899 10.4062C6.69146 10.4533 5.85081 10.3566 5.06767 9.93696C4.40391 9.58153 3.87387 9.07895 3.41473 8.49285C2.68537 7.56191 2.10929 6.53861 1.58333 5.48525C1.55645 5.4314 1.02374 4.29784 1.00942 4.24429C0.961836 4.06501 1.00623 3.89375 1.15771 3.83479C1.25214 3.79805 3.00852 3.83467 3.03773 3.83624C3.31799 3.85141 3.5091 3.96966 3.62715 4.26054Z" fill="white"/>
</svg>

<svg width="14" height="14" fill="none" xmlns="http://www.w3.org/2000/svg"><rect width="14" height="14" rx="6" fill="#fff"/><path d="M12 0H2a2 2 0 00-2 2v10a2 2 0 002 2h10a2 2 0 002-2V2a2 2 0 00-2-2z" fill="#44678D"/><path d="M3.627 4.26c.336.83.76 1.61 1.32 2.312.075.093.169.176.268.243.144.1.28.065.338-.1.062-.173.119-.524.122-.705a15.23 15.23 0 00-.027-1.26c-.016-.303-.124-.57-.57-.65-.138-.025-.151-.139-.063-.252.185-.236.442-.273.72-.288.452-.025.905-.005 1.357 0 .184.001.37.016.551.056.237.051.363.217.402.448.02.12.03.242.028.362-.012.518-.037 1.036-.043 1.554-.002.203.013.411.056.61.061.275.249.344.44.145a6.75 6.75 0 00.662-.827c.366-.526.64-1.104.876-1.699.122-.307.215-.374.546-.375.62-.001 1.242-.002 1.863 0 .11 0 .225.011.33.044.168.054.235.192.196.366-.093.41-.314.757-.55 1.092-.38.536-.78 1.06-1.168 1.59-.05.068-.093.14-.134.213-.146.263-.136.41.077.63.338.348.7.674 1.026 1.032.238.26.458.543.646.84.238.376.091.73-.354.793-.28.04-1.648 0-1.718 0a1.339 1.339 0 01-.95-.378c-.289-.279-.551-.583-.828-.874a2.315 2.315 0 00-.27-.244c-.226-.173-.448-.135-.554.132-.09.228-.17.83-.173.88-.019.269-.19.44-.49.456-.868.047-1.708-.05-2.491-.469-.664-.355-1.194-.858-1.653-1.444-.73-.931-1.306-1.954-1.832-3.008a55.272 55.272 0 01-.574-1.24c-.047-.18-.003-.351.149-.41.094-.037 1.85 0 1.88.001.28.015.471.134.59.425z" fill="#fff"/></svg>
